public/icons/hosting-lg.svg

<svg role="img" xmlns="http://www.w3.org/2000/svg" width="72" height="72" fill="none" viewBox="0 0 72 72">
  <path stroke="currentColor" stroke-miterlimit="10" d="M36.0501 47.4923H15.43c-5.5307 0-11.1717-2.7854-11.1717-9.8792 0-6.663 7.3242-9.5886 7.3242-9.5886s-.511-5.4907 3.567-9.0176c4.5889-3.9276 10.4803-2.1441 10.4803-2.1441A13.4567 13.4567 0 0 1 39.0559 7.194c11.6126 0 13.2157 10.2399 13.2157 10.2399s4.4086.2404 6.7231 3.0058a8.0171 8.0171 0 0 1 1.4265 3.0269 8.0176 8.0176 0 0 1 .0664 3.3455 11.5931 11.5931 0 0 1 6.0718 10.4102c0 8.2761-7.6248 10.3602-10.771 10.3602-3.1461 0-19.7383-.0902-19.7383-.0902Zm-19.0972 5.8514H4.6891v12.2638h12.2638V53.3437Zm25.3292 0H30.0183v12.2638h12.2638V53.3437Zm24.678 0H54.6963v12.2638h12.2638V53.3437Zm-31.0002-5.7011v5.4806m-12.0134-5.4806v11.853h-6.8633"/>
  <path stroke="currentColor" stroke-miterlimit="10" d="M48.374 47.6426v11.853h6.5327"/>
</svg>

<svg role="img" width="72" height="72" viewBox="0 0 72 72" fill="none" xmlns="http://www.w3.org/2000/svg">

<path d="M36.0501 47.4924H15.43C9.89923 47.4924 4.25827 44.7069 4.25827 37.6132C4.25827 30.9502 11.5825 28.0245 11.5825 28.0245C11.5825 28.0245 11.0715 22.5339 15.1494 19.007C19.7384 15.0794 25.6298 16.8628 25.6298 16.8628C26.4712 13.9861 28.249 11.4727 30.6812 9.72113C33.1134 7.96958 36.0608 7.0802 39.0559 7.19404C50.6685 7.19404 52.2716 17.4339 52.2716 17.4339C52.2716 17.4339 56.6802 17.6744 58.9947 20.4398C59.6778 21.3372 60.1639 22.3686 60.4211 23.4667C60.6784 24.5647 60.701 25.7047 60.4876 26.8122C62.3567 27.824 63.9117 29.3303 64.9826 31.1663C66.0534 33.0022 66.5989 35.0973 66.5593 37.2224C66.5593 45.4985 58.9345 47.5825 55.7884 47.5825C52.6423 47.5825 36.0501 47.4924 36.0501 47.4924Z" stroke="currentColor" stroke-miterlimit="10"/>
<path d="M16.953 53.3436H4.68912V65.6075H16.953V53.3436Z" stroke="currentColor" stroke-miterlimit="10"/>
<path d="M42.2822 53.3436H30.0183V65.6075H42.2822V53.3436Z" stroke="currentColor" stroke-miterlimit="10"/>
<path d="M66.9601 53.3436H54.6963V65.6075H66.9601V53.3436Z" stroke="currentColor" stroke-miterlimit="10"/>
<path d="M35.9599 47.6426V53.1232" stroke="currentColor" stroke-miterlimit="10"/>
<path d="M23.9465 47.6426V59.4956H17.0832" stroke="currentColor" stroke-miterlimit="10"/>
<path d="M48.374 47.6426V59.4956H54.9067" stroke="currentColor" stroke-miterlimit="10"/>


</svg>
